X:1
T:Seal Us, O Holy Spirit
T:Isaac Hickman Meredith, 1900
T:Seal Us, O Holy Spirit
T:Public Domain
T:Public Domain
C:Isaac Hickman Meredith, 1900
Z:Public Domain
%%score ( 1 2 ) ( 3 4 )
L:1/8
M:6/8
K:Eb
V:1 treble 
V:2 treble 
V:3 bass 
V:4 bass 
V:1
 [EG][EG][EG] [EA]2 [Ec] | [EB]3 [EG]3 | [DB][DF][EG] [FA][EG][DF] | [EG]6 | %4
w: 1.~Seal us, O Ho- ly|Spir- it,|Grant us Thine im- press, we|pray;|
w: 2.~Seal us, O Ho- ly|Spir- it,|Help us Thy like- ness to|show;|
w: 3.~Seal us, O Ho- ly|Spir- it,|Make us Thine own from this|hour;|
 [FG][FG][FG] [FG][F=A][F=B] | [Ec]3 [EG]3 | [DF][DF][FB] [E=A][EG][EA] | [DB]6 || %8
w: We would be more like the|Sav- ior,|Stamped with His im- age to-|day.|
w: Then from our life un- to|o- thers|Streams of rich bless- ings shall|flow.|
w: Let us be use- ful, dear|Mas- ter,|Seal us with wit- ness- ing|power.|
"^Refrain" [EB]3 [EG]3 | [Ee]3 [Ac]3 | [GB][Ac][GB] [EG]2 E | [DF]6 | [EG][EG][EG] [EG]2 [EB] | %13
w: |||||
w: |||||
w: |||||
 [EB]3 [EA]3 | [EG][B,F][B,E] [B,D][B,E][DF] | [B,E]6 |] %16
w: |||
w: |||
w: |||
V:2
 x6 | x6 | x6 | x6 | x6 | x6 | x6 | x6 || x6 | x6 | x5 E | x6 | x6 | x6 | x6 | x6 |] %16
V:3
 [E,B,][E,B,][E,B,] [E,C]2 [E,A,] | [E,G,]3 [E,B,]3 | [B,,B,][B,,B,][B,,B,] [B,,B,][B,,B,][B,,B,] | %3
w: ~ ~ ~ ~ ~|~ ~|~ ~ ~ ~ ~ ~|
 [E,B,]6 | [G,=B,][G,B,][G,B,] [G,B,][G,C][G,D] | [C,C]3 [C,C]3 | %6
w: ~|~ ~ ~ ~ ~ ~|~ ~|
 [F,B,][F,B,][F,D] [F,C][F,B,][F,C] | [B,,B,]6 || [E,G,]3 [E,B,]3 | [A,C]3 [A,E]3 | %10
w: ~ ~ ~ ~ ~ ~|~|Seal us,|seal us,|
 [E,E][E,E][E,E] [E,B,]2 [C,=A,] | [B,,B,]6 | [E,B,][E,B,][E,B,] [E,B,]2 [G,_D] | [G,_D]3 [A,C]3 | %14
w: Seal us just now, we|pray;|Seal us, O Ho- ly|Spir- it,|
 B,[B,,A,][B,,G,] [B,,F,][B,,G,][B,,A,] | [E,G,]6 |] %16
w: Seal us for ser- vice to-||
V:4
 x6 | x6 | x6 | x6 | x6 | x6 | x6 | x6 || x6 | x6 | x6 | x6 | x6 | x6 | B, x5 | x6 |] %16
w: ||||||||||||||day.||

